!!!SOCIAL_FUNCTION:	songs of war
!!!REG: Great Lakes
!!!PDT:	1913
!!!OTL: No_13_I_Feel_No_Fear.krn
**kern	**kern
*staff2	*staff1
*clefF4	*clefF4
*k[b-e-a-d-g-]	*k[b-e-a-d-g-]
*M2/4	*M2/4
16r	16e-\
=1	=1
8GG-^/L	8.e-\L
8GG-/J	.
.	16f\Jk
8GG-^/L	4f\
8GG-/J	.
=2	=2
8GG-^/L	8.f\L
8GG-/J	.
.	16e-\Jk
8GG-^/L	4e-\
8GG-/J	.
=3	=3
2r	4..e-\
.	16d-\
=4	=4
2r	8.d-\L
.	16d-\Jk
.	4d-\
=5	=5
2r	8.B-\L
.	16A-\Jk
.	4A-\
=6	=6
2r	4..A-\
.	16A-\
=7	=7
2r	8.A-\L
.	16A-\Jk
.	4A-\
=8	=8
2r	8.A-\L
.	16A-\Jk
.	4A-\
=9	=9
2r	4.A-\
.	16A-\LL
.	16A-\JJ
=10||	=10||
*M5/4	*M5/4
1r	4e-\
.	8.e-\L
.	16e-\K
.	8e-\
.	8e-\J
.	12e-\L
.	12e-\
.	12e-\J
4r	8e-\L
.	8e-\J
=11||	=11||
*M2/4	*M2/4
2r	8.e-\L
.	16d-\Jk
.	4d-\
=12	=12
2r	4..d-\
.	16B--\
=13	=13
2r	8.B--\L
.	16B--\Jk
.	4B--\
=14	=14
2r	8.B--\L
.	16B--\Jk
.	4A-\
=15	=15
2r	4..B--\
.	16B--\
=16	=16
2r	8.B--\L
.	16c-\Jk
.	4c-\
=17	=17
2r	8.B--\L
.	16A-\Jk
.	4A-\
=18	=18
2r	4..A-\
.	16E-\
=19	=19
2r	8.E-\L
.	16F\Jk
.	4F\
=20	=20
2r	8.F\L
.	16E-\Jk
.	4E-\
=21	=21
2r	4..E-\
.	16D-\
=22	=22
2r	8.D-\L
.	16D-\Jk
.	4D-\
=23	=23
2r	8.BB-/L
.	16AA-/Jk
.	4AA-/
=24	=24
2r	2AA-/
==	==
*-	*-
